static/card-icons/nextjs.svg

<svg height="48" viewBox="0 0 48 48" width="48" xmlns="http://www.w3.org/2000/svg"><path d="m24 4c-11.028 0-20 8.972-20 20s8.972 20 20 20 20-8.972 20-20-8.972-20-20-20zm0 3c9.374 0 17 7.626 17 17 0 5.852-2.972328 11.020078-7.486328 14.080078l-13.771484-20.419922c-.367001-.547-1.054641-.785703-1.681641-.595703-.63.194-1.060547.776547-1.060547 1.435547v13c0 .828.672 1.5 1.5 1.5s1.5-.672 1.5-1.5v-8.09375l10.876953 16.126953c-2.106.935-4.428953 1.466797-6.876953 1.466797-9.374 0-17-7.626-17-17s7.626-17 17-17zm5.5 8c-.828 0-1.5.672-1.5 1.5v8.486328l3 4.302734v-12.789062c0-.828-.672-1.5-1.5-1.5z"/></svg>

<svg xmlns="http://www.w3.org/2000/svg"  viewBox="0 0 48 48" width="48px" height="48px"><path d="M 24 4 C 12.972 4 4 12.972 4 24 C 4 35.028 12.972 44 24 44 C 35.028 44 44 35.028 44 24 C 44 12.972 35.028 4 24 4 z M 24 7 C 33.374 7 41 14.626 41 24 C 41 29.852 38.027672 35.020078 33.513672 38.080078 L 19.742188 17.660156 C 19.375187 17.113156 18.687547 16.874453 18.060547 17.064453 C 17.430547 17.258453 17 17.841 17 18.5 L 17 31.5 C 17 32.328 17.672 33 18.5 33 C 19.328 33 20 32.328 20 31.5 L 20 23.40625 L 30.876953 39.533203 C 28.770953 40.468203 26.448 41 24 41 C 14.626 41 7 33.374 7 24 C 7 14.626 14.626 7 24 7 z M 29.5 15 C 28.672 15 28 15.672 28 16.5 L 28 24.986328 L 31 29.289062 L 31 16.5 C 31 15.672 30.328 15 29.5 15 z"/></svg>
